**kern	**kern	**kern	**dynam	**kern	**kern	**kern	**kern	**dynam	**kern	**dynam	**kern
*staff9	*staff8	*staff7	*	*staff6	*staff5	*staff4	*staff3	*	*staff2	*	*staff1
*clefFv4	*clefGv2	*clefF4	*	*clefG2	*clefG2	*clefG2	*clefG2	*	*clefG2	*	*clefG2
*k[]	*k[]	*k[]	*	*k[]	*k[]	*k[]	*k[]	*	*k[]	*	*k[]
*M4/4	*M4/4	*M4/4	*	*M4/4	*M4/4	*M4/4	*M4/4	*	*M4/4	*	*M4/4
=	=	=	=	=	=	=	=	=	=	=	=
8CL\	1r	4G\	.	2cc\	2cc\	2G/	2ee\	.	1r	.	1r
8C\	.	.	.	.	.	.	.	.	.	.	.
8C\	.	4r	.	.	.	.	.	.	.	.	.
8CJ\	.	.	.	.	.	.	.	.	.	.	.
8FFL\	.	2A\	.	2f/	2f/	2A/	2a\	.	.	.	.
8FF\	.	.	.	.	.	.	.	.	.	.	.
8FF\	.	.	.	.	.	.	.	.	.	.	.
8FFJ\	.	.	.	.	.	.	.	.	.	.	.
=	=	=	=	=	=	=	=	=	=	=	=
8CL\	1r	2G\	.	2cc\	2cc\	2G/	2ee\	.	1r	.	1r
8C\	.	.	.	.	.	.	.	.	.	.	.
8C\	.	.	.	.	.	.	.	.	.	.	.
8CJ\	.	.	.	.	.	.	.	.	.	.	.
8GGL\	.	2B\	.	2g/	2g/	2B/	2b\	.	.	.	.
8GG\	.	.	.	.	.	.	.	.	.	.	.
8GG\	.	.	.	.	.	.	.	.	.	.	.
8GGJ\	.	.	.	.	.	.	.	.	.	.	.
=	=	=	=	=	=	=	=	=	=	=	=
8CL\	1r	2G\	.	2cc\	2cc\	2G/	2ee\	.	1g[	1r
8C\	.	.	.	.	.	.	.	.	.	.	.
8C\	.	.	.	.	.	.	.	.	.	.	.
8CJ\	.	.	.	.	.	.	.	.	.	.	.
8FFL\	.	2A\	.	2f/	2f/	2A/	2a\	.	.	.	.
8FF\	.	.	.	.	.	.	.	.	.	.	.
8FF\	.	.	.	.	.	.	.	.	.	.	.
8FFJ\	.	.	.	.	.	.	.	.	.	.	.
=	=	=	=	=	=	=	=	=	=	=	=
8CL\	1r	2G\	.	2cc\	2cc\	2G/	2ee\	.	1g]	1r
8C\	.	.	.	.	.	.	.	.	.	.	.
8C\	.	.	.	.	.	.	.	.	.	.	.
8CJ\	.	.	.	.	.	.	.	.	.	.	.
8GGL\	.	2B\	.	2g/	2gg\	2B/	2dd\	.	.	.	.
8GG\	.	.	.	.	.	.	.	.	.	.	.
8GG\	.	.	.	.	.	.	.	.	.	.	.
8GGJ\	.	.	.	.	.	.	.	.	.	.	.
=	=	=	=	=	=	=	=	=	=	=	=
8FFL\	1r	2F\	.	2f/	2ff\	2F/	2a\	.	2f\	.	1r
8FF\	.	.	.	.	.	.	.	.	.	.	.
8FF\	.	.	.	.	.	.	.	.	.	.	.
8FFJ\	.	.	.	.	.	.	.	.	.	.	.
8CL\	.	8cL\	.	8ccL\	8eeL\	8c/L	8ccL\	.	8ccL\	.	.
8C\	.	8c\	.	8cc\	8ff\	8c/	8cc\	.	8cc\	.	.
8CJ\	.	8cJ\	.	8ccJ\	8eeJ\	8c/J	8ccJ\	.	8ccJ\	.	.
8r	.	8r	.	8r	8r	8r	8r	.	8r	.	.
=	=	=	=	=	=	=	=	=	=	=	=
8CL\	1r	8GL\	.	8e/L	8eeL\	1r	1r	.	8eL\	.	1r
8GG\	.	8G\	.	8e/	8ee\	.	.	.	8e\	.	.
8C\	.	8G\	.	8e/	8ee\	.	.	.	8e\	.	.
8DJ\	.	8AJ\	.	8f/J	8ffJ\	.	.	.	8fJ\	.	.
8EL\	.	16GKL\	.	16e/KL	16eeKL\	.	.	.	16eKL\	.	.
.	.	8F\	.	8d/	8dd\	.	.	.	8d\	.	.
8BB\	.	.	.	.	.	.	.	.	.	.	.
.	.	8EJ\	.	8c/J	8ccJ\	.	.	.	8cJ\	.	.
8G\	.	.	.	.	.	.	.	.	.	.	.
.	.	16r	.	8r	8r	.	.	.	8r	.	.
8EJ\	.	8r	.	.	.	.	.	.	.	.	.
.	.	.	.	16r	16r	.	.	.	16r	.	.
=	=	=	=	=	=	=	=	=	=	=	=
8AL\	1r	16GKL\	.	16e/KL	16eeKL\	8r	8r	.	16c/KL	.	1r
.	.	8F\	.	8d/	8dd\	.	.	.	8d/	.	.
8GJ\	.	.	.	.	.	8r	8r	.	.	.	.
.	.	8EJ\	.	8c/J	8ccJ\	.	.	.	8c/J	.	.
16EL\	.	.	.	.	.	8r	8r	.	.	.	.
16FJ\	.	16r	.	16r	16r	.	.	.	16r	.	.
8GJ\	.	8r	.	8r	8r	8r	8r	.	8r	.	.
8FL\	.	16GKL\	.	16e/KL	16eeKL\	16gKL\	16g/KL	.	16c/KL	.	.
.	.	8F\	.	8d/	8dd\	8f\	8f/	.	8d/	.	.
8E\	.	.	.	.	.	.	.	.	.	.	.
.	.	8E\	.	8c/	8cc\	8e\	8e/	.	8c/	.	.
8F\	.	.	.	.	.	.	.	.	.	.	.
.	.	8F\	.	8d/	8dd\	8f\	8f/	.	8d/	.	.
8GJ\	.	.	.	.	.	.	.	.	.	.	.
.	.	16EJ[\k	.	16c/J[k	16ccJ[\k	16cJ[\k	16c/J[k	.	16c/J[k	.	.
=	=	=	=	=	=	=	=	=	=	=	=
8cL\	1r	.4E\]	.	.4c/]	.4cc\]	.4c/]	.4c/]	.	.4c/]	.	1r
8G\	.	.	.	.	.	.	.	.	.	.	.
8E\	.	.	.	.	.	.	.	.	.	.	.
8CJ\	.	.	.	.	.	.	.	.	.	.	.
.	.	2G\	.	2d/	2dd\	2d\	2g/	.	2d\	.	.
8GL\	.	.	.	.	.	.	.	.	.	.	.
8DJ\	.	.	.	.	.	.	.	.	.	.	.
16GL\	.	.	.	.	.	.	.	.	.	.	.
16AJ\	.	.	.	.	.	.	.	.	.	.	.
8GJ\	.	.	.	.	.	.	.	.	.	.	.
.	.	16c[\	.	16c/[	16ff[\	16f[\	16f/[	.	16c/[	.	.
=	=	=	=	=	=	=	=	=	=	=	=
8FL\	1r	.4c\]	.	.4c/]	.4ff\]	.4f\]	.4f/]	.	.4c/]	.	1r
8E\	.	.	.	.	.	.	.	.	.	.	.
8D\	.	.	.	.	.	.	.	.	.	.	.
8GJ\	.	.	.	.	.	.	.	.	.	.	.
.	.	16G\	.	16e/	16ee\	16c/	16c/	.	16e\	.	.
8CL\	.	16GL\	.	16e/L	16eeL\	16c/L	16c/L	.	16eL\	.	.
.	.	16G\	.	16e/	16ee\	16c/	16c/	.	16e\	.	.
8C\	.	16G\	.	16e/	16ee\	16c/	16c/	.	16e\	.	.
.	.	16GJ\	.	16e/J	16eeJ\	16c/J	16c/J	.	16eJ\	.	.
8C\	.	4r	.	8c/	8cc\	4r	4r	.	8c\	.	.
8GGJ\	.	.	.	8r	8r	.	.	.	8r	.	.
=	=	=	=	=	=	=	=	=	=	=	=
8CL\	1r	8GL\	.	8e/L	8eeL\	1r	1r	.	8eL\	.	1r
8GG\	.	8G\	.	8e/	8ee\	.	.	.	8e\	.	.
8C\	.	8G\	.	8e/	8ee\	.	.	.	8e\	.	.
8DJ\	.	8AJ\	.	8f/J	8ffJ\	.	.	.	8fJ\	.	.
8EL\	.	16GKL\	.	16e/KL	16eeKL\	.	.	.	16eKL\	.	.
.	.	8F\	.	8d/	8dd\	.	.	.	8d\	.	.
8BB\	.	.	.	.	.	.	.	.	.	.	.
.	.	8EJ\	.	8c/J	8ccJ\	.	.	.	8cJ\	.	.
8G\	.	.	.	.	.	.	.	.	.	.	.
.	.	16r	.	16r	16r	.	.	.	8r	.	.
8EJ\	.	8r	.	8r	8r	.	.	.	.	.	.
.	.	.	.	.	.	.	.	.	16r	.	.
=	=	=	=	=	=	=	=	=	=	=	=
8AL\	1r	16GKL\	.	16e/KL	16eeKL\	8r	8r	.	16c/KL	.	1r
.	.	8F\	.	8d/	8dd\	.	.	.	8d/	.	.
8GJ\	.	.	.	.	.	8r	8r	.	.	.	.
.	.	8EJ\	.	8c/J	8ccJ\	.	.	.	8c/J	.	.
16EL\	.	.	.	.	.	8r	8r	.	.	.	.
16FJ\	.	16r	.	16r	16r	.	.	.	16r	.	.
8GJ\	.	8r	.	8r	8r	8r	8r	.	8r	.	.
8FL\	.	16GKL\	.	16e/KL	16eeKL\	16gKL\	16g/KL	.	16c/KL	.	.
.	.	8F\	.	8d/	8dd\	8f\	8f/	.	8d/	.	.
8E\	.	.	.	.	.	.	.	.	.	.	.
.	.	8E\	.	8c/	8cc\	8e\	8e/	.	8c/	.	.
8F\	.	.	.	.	.	.	.	.	.	.	.
.	.	8F\	.	8d/	8dd\	8f\	8f/	.	8d/	.	.
8GJ\	.	.	.	.	.	.	.	.	.	.	.
.	.	16EJ[\k	.	16c/J[k	16ccJ[\k	16cJ[\k	16c/J[k	.	16c/J[k	.	.
=	=	=	=	=	=	=	=	=	=	=	=
8cL\	1r	.4E\]	.	.4c/]	.4cc\]	.4c/]	.4c/]	.	.4c/]	.	1r
8G\	.	.	.	.	.	.	.	.	.	.	.
8E\	.	.	.	.	.	.	.	.	.	.	.
8CJ\	.	.	.	.	.	.	.	.	.	.	.
.	.	2G\	.	2d/	2dd\	2d\	2g/	.	2d\	.	.
8GL\	.	.	.	.	.	.	.	.	.	.	.
8DJ\	.	.	.	.	.	.	.	.	.	.	.
16GL\	.	.	.	.	.	.	.	.	.	.	.
16AJ\	.	.	.	.	.	.	.	.	.	.	.
8GJ\	.	.	.	.	.	.	.	.	.	.	.
.	.	16c[\	.	16c/[	16ff[\	16f[\	16f/[	.	16c/[	.	.
=	=	=	=	=	=	=	=	=	=	=	=
8FL\	1r	.4c\]	.	.4c/]	.4ff\]	.4f\]	.4f/]	.	.4c/]	.	1r
8E\	.	.	.	.	.	.	.	.	.	.	.
8D\	.	.	.	.	.	.	.	.	.	.	.
8GJ\	.	.	.	.	.	.	.	.	.	.	.
.	.	16G\	.	16e/	16ee\	16c/	16c/	.	16e\	.	.
8CL\	.	16GL\	.	16e/L	16eeL\	16c/L	16c/L	.	16eL\	.	.
.	.	16G\	.	16e/	16ee\	16c/	16c/	.	16e\	.	.
8C\	.	16G\	.	16e/	16ee\	16c/	16c/	.	16e\	.	.
.	.	16GJ\	.	16e/J	16eeJ\	16c/J	16c/J	.	16eJ\	.	.
8CJ\	.	16G\	.	8c/	8cc\	16r	16r	.	8c\	.	.
.	.	16r	.	.	.	16r	16r	.	.	.	.
8r	.	8r	.	8r	8r	8r	8r	.	8r	.	.
=	=	=	=	=	=	=	=	=	=	=	=
8CL\	1r	2r	.	16r	16r	8c/L	2r	.	16r	.	1r
.	.	.	.	16ccL\	16eeL\	.	.	.	16c/L	.	.
8C\	.	.	.	16ccJ\	16eeJ\	8c/	.	.	16c/J	.	.
.	.	.	.	8cc\	8ee\	.	.	.	8c/	.	.
8C\	.	.	.	.	.	8c/	.	.	.	.	.
.	.	.	.	8ccJ\	8eeJ\	.	.	.	8c/J	.	.
8CJ\	.	.	.	.	.	8c/J	.	.	.	.	.
.	.	.	.	2f/	2a\	.	.	.	2F/	.	.
8FFL\	.	16AL\	.	.	8F/L	16aL\	.	.	.	.
.	.	16c\	.	.	.	.	16cc\	.	.	.	.
8FF\	.	16e\	.	.	.	8F/	16ee\	.	.	.	.
.	.	16eJ\	.	.	.	.	16eeJ\	.	.	.	.
8FF\	.	16eL\	.	.	.	8F/	16eeL\	.	.	.	.
.	.	16dJ\	.	.	.	.	16ddJ\	.	.	.	.
8FFJ\	.	8cJ[\	.	.	.	8F/J	8ccJ[\	.	.	.	.
.	.	.	.	16r	16r	.	.	.	16r	.	.
=	=	=	=	=	=	=	=	=	=	=	=
8CL\	1r	.4c\]	.	8r	8r	8c/L	.4cc\]	.	8r	.	1r
8C\	.	.	.	16ccL\	16eeL\	8c/	.	.	16c/L	.	.
.	.	.	.	16ccJ\	16eeJ\	.	.	.	16c/J	.	.
8C\	.	.	.	8ccL\	8eeL\	8c/	.	.	8c/L	.	.
8CJ\	.	8r	.	8ccJ\	8ccJ\	8c/J	8r	.	8c/J	.	.
8GGL\	.	16r	.	2g/	2dd\	8G/L	16r	.	2G/	.	.
.	.	16AL\	.	.	.	.	16aL\	.	.	.	.
8GG\	.	16c\	.	.	.	8G/	16cc\	.	.	.	.
.	.	16eJ\	.	.	.	.	16eeJ\	.	.	.	.
8GG\	.	16eL\	.	.	.	8G/	16eeL\	.	.	.	.
.	.	16e\	.	.	.	.	16ee\	.	.	.	.
8GGJ\	.	16d\	.	.	.	8G/J	16dd\	.	.	.	.
.	.	16cJ[\	.	.	.	.	16ccJ[\	.	.	.	.
=	=	=	=	=	=	=	=	=	=	=	=
8CL\	1r	.4c\]	.	8r	8r	8c/L	.4cc\]	.	8r	.	1r
8C\	.	.	.	16ccL\	16eeL\	8c/	.	.	16c/L	.	.
.	.	.	.	16ccJ\	16eeJ\	.	.	.	16c/J	.	.
8C\	.	.	.	8ccL\	8eeL\	8c/	.	.	8c/L	.	.
8CJ\	.	.	.	8ccJ\	8eeJ\	8c/J	.	.	8c/J	.	.
.	.	16r	.	.	.	.	4r	.	.	.	.
8FFL\	.	16FL\	.	.4a\	.4a\	8F/L	.	.	.4F/	.	.
.	.	16FJ\	.	.	.	.	.	.	.	.	.
8FF\	.	16r	.	.	.	8F/	.	.	.	.	.
.	.	16F\	.	.	.	.	8r	.	.	.	.
8FF\	.	16r	.	.	.	8F/	.	.	.	.	.
.	.	16F\	.	.	.	.	16r	.	.	.	.
8FFJ\	.	16r	.	8e/	8g/	8F/J	8cc[\	.	8A/	.	.
.	.	16r	.	.	.	.	.	.	.	.	.
=	=	=	=	=	=	=	=	=	=	=	=
8CL\	1r	4r	.	.4cc\	.4ee\	8c/L	.4cc\]	.	.4e\	.	1r
8C\	.	.	.	.	.	8c/	.	.	.	.	.
8C\	.	16r	.	.	.	8c/	.	.	.	.	.
.	.	16r	.	.	.	.	.	.	.	.	.
8CJ\	.	16GL\	.	8e/	8cc\	8c/J	8r	.	8c/	.	.
.	.	16GJ\	.	.	.	.	.	.	.	.	.
8GGL\	.	16r	.	.4g/	.4dd\	8G/L	2r	.	.4d\	.	.
.	.	16G\	.	.	.	.	.	.	.	.	.
8GG\	.	16r	.	.	.	8G/	.	.	.	.	.
.	.	16G\	.	.	.	.	.	.	.	.	.
8GG\	.	16r	.	.	.	8G/	.	.	.	.	.
.	.	16r	.	.	.	.	.	.	.	.	.
8GGJ\	.	16r	.	8e/	8a\	8G/J	.	.	8A/	.	.
.	.	16r	.	.	.	.	.	.	.	.	.
=	=	=	=	=	=	=	=	=	=	=	=
8FFL\	1r	2F\	.	.4f/	.4cc\	8F/L	2f/	.	.4f\	.	1r
8FF\	.	.	.	.	.	8F/	.	.	.	.	.
8FF\	.	.	.	.	.	8F/	.	.	.	.	.
8FFJ\	.	.	.	8e/	8a\	8F/J	.	.	8e\	.	.
8CL\	.	8EL\	.	8c/L	8ccL\	8c/L	8e/L	.	8c/L	.	.
8C\	.	8F\	.	8c/	8cc\	8c/	8f/	.	8c/	.	.
8CJ\	.	8EJ\	.	8c/J	8ccJ\	8c/J	8e/J	.	8c/J	.	.
8r	.	8r	.	8r	8r	8r	8r	.	8r	.	.
=	=	=	=	=	=	=	=	=	=	=	=
1r	1r	1CC	.	1r	1r	1C	1r	.	1r	.	1r
=	=	=	=	=	=	=	=	=	=	=	=
1r	1r	1r	.	1r	1r	1r	1r	.	1r	.	1r
=	=	=	=	=	=	=	=	=	=	=	=
1r	1r	1r	.	1r	1r	16c/	1r	.	1r	.	1r
.	.	.	.	.	.	8r	.	.	.	.	.
.	.	.	.	.	.	16c/	.	.	.	.	.
.	.	.	.	.	.	8r	.	.	.	.	.
.	.	.	.	.	.	16c/	.	.	.	.	.
.	.	.	.	.	.	16r	.	.	.	.	.
.	.	.	.	.	.	16A###	.	.	.	.	.
.	.	.	.	.	.	16r	.	.	.	.	.
.	.	.	.	.	.	16B-/	.	.	.	.	.
.	.	.	.	.	.	16r	.	.	.	.	.
.	.	.	.	.	.	16G/	.	.	.	.	.
.	.	.	.	.	.	16r	.	.	.	.	.
.	.	.	.	.	.	8r	.	.	.	.	.
=	=	=	=	=	=	=	=	=	=	=	=
1r	1r	1r	.	1r	1r	16C/	16c/	.	1r	.	1r
.	.	.	.	.	.	8r	8r	.	.	.	.
.	.	.	.	.	.	16C/	16c/	.	.	.	.
.	.	.	.	.	.	8r	8r	.	.	.	.
.	.	.	.	.	.	16C/	16c/	.	.	.	.
.	.	.	.	.	.	16r	16r	.	.	.	.
.	.	.	.	.	.	16G#X/	16g#X/	.	.	.	.
.	.	.	.	.	.	16r	16r	.	.	.	.
.	.	.	.	.	.	16G/	16g/	.	.	.	.
.	.	.	.	.	.	16r	16r	.	.	.	.
.	.	.	.	.	.	16F/	16f/	.	.	.	.
.	.	.	.	.	.	16r	16r	.	.	.	.
.	.	.	.	.	.	8r	8r	.	.	.	.
=	=	=	=	=	=	=	=	=	=	=	=
1r	1r	1r	.	1r	1r	16c/	16cc\	.	16cc\	.	1r
.	.	.	.	.	.	8r	8r	.	8r	.	.
.	.	.	.	.	.	16c/	16cc\	.	16cc\	.	.
.	.	.	.	.	.	8r	8r	.	8r	.	.
.	.	.	.	.	.	16c/	16cc\	.	16cc\	.	.
.	.	.	.	.	.	16r	16r	.	16r	.	.
.	.	.	.	.	.	16A-/	16g#X/	.	16g#X\	.	.
.	.	.	.	.	.	16r	16r	.	16r	.	.
.	.	.	.	.	.	16B-/	16a#X\	.	16cc--\	.	.
.	.	.	.	.	.	16r	16r	.	16r	.	.
.	.	.	.	.	.	16G/	16g/	.	16g\	.	.
.	.	.	.	.	.	16r	16r	.	16r	.	.
.	.	.	.	.	.	8r	8r	.	8r	.	.
=	=	=	=	=	=	=	=	=	=	=	=
1r	1r	1r	.	1r	8r	.4G#X/	.4cc\	.	.4cc\	.	1r
.	.	.	.	.	8r	.	.	.	.	.	.
.	.	.	.	.	8r	.	.	.	.	.	.
.	.	.	.	.	8r	16G/L	16ddL\	.	16ddL\	.	.
.	.	.	.	.	.	16G#X/J	16ccJ\	.	16ccJ\	.	.
.	.	.	.	.	8r	8G/	16b\	.	16b\	.	.
.	.	.	.	.	.	.	16r	.	16r	.	.
.	.	.	.	.	8r	8r	8r	.	8r	.	.
.	.	.	.	.	8r	4r	4r	.	4r	.	.
.	.	.	.	.	8g/	.	.	.	.	.	.
=	=	=	=	=	=	=	=	=	=	=	=
16C\	1r	16C/	.	16g/	16ccL\	16c/	16cc\	.	1r	.	1r
8r	.	8r	.	8r	16dd\	8r	8r	.	.	.	.
.	.	.	.	.	16cc\	.	.	.	.	.	.
16C\	.	16C/	.	16g/	16bJ\	16c/	16cc\	.	.	.	.
8r	.	8r	.	8r	.4cc\	8r	8r	.	.	.	.
16C\	.	16C/	.	16g/	.	16c/	16cc\	.	.	.	.
16r	.	16r	.	16r	.	16r	16r	.	.	.	.
16AA-X\	.	16AA-X/	.	16g/	.	16A-/	16g#X/	.	.	.	.
16r	.	16r	.	16r	.	16r	16r	.	.	.	.
16BB-X\	.	16BB-X/	.	16g#X/	8ccL\	16B-/	16a#X\	.	.	.	.
16r	.	16r	.	16r	.	16r	16r	.	.	.	.
16GG\	.	16GG/	.	16g/	8dd\	16G/	16g/	.	.	.	.
16r	.	16r	.	16r	.	16r	16r	.	.	.	.
8r	.	8r	.	8r	8dd#XJ\	8r	8r	.	.	.	.
=	=	=	=	=	=	=	=	=	=	=	=
16C\	1r	16CC/	.	16cc\	16ggL\	16C/	16c/	.	1r	.	1r
8r	.	8r	.	8r	16gg#X\	8r	8r	.	.	.	.
.	.	.	.	.	16gg\	.	.	.	.	.	.
16C\	.	16CC/	.	16cc\	16ffJ\	16C/	16c/	.	.	.	.
8r	.	8r	.	8r	.4gg\	8r	8r	.	.	.	.
16C\	.	16CC/	.	16cc\	.	16C/	16c/	.	.	.	.
16r	.	16r	.	16r	.	16r	16r	.	.	.	.
16AA-X\	.	16AA-X/	.	16dd#X\	.	16A-/	16g#X/	.	.	.	.
16r	.	16r	.	16r	.	16r	16r	.	.	.	.
16GG\	.	16GG/	.	16dd\	8ggL\	16G/	16g/	.	.	.	.
16r	.	16r	.	16r	.	16r	16r	.	.	.	.
16FF\	.	16FF/	.	16cc\	8gg#X\	16F/	16f/	.	.	.	.
16r	.	16r	.	16r	.	16r	16r	.	.	.	.
8r	.	8r	.	8r	8ggJ\	8r	8r	.	.	.	.
=	=	=	=	=	=	=	=	=	=	=	=
16C\	1r	16C/	.	16g/	16ffL\	16c/	16cc\	.	1r	.	1r
8r	.	8r	.	8r	16gg#X\	8r	8r	.	.	.	.
.	.	.	.	.	16gg\	.	.	.	.	.	.
16C\	.	16C/	.	16g/	16ffJ\	16c/	16cc\	.	.	.	.
8r	.	8r	.	8r	.4gg\	8r	8r	.	.	.	.
16C\	.	16C/	.	16g/	.	16c/	16cc\	.	.	.	.
16r	.	16r	.	16r	.	16r	16r	.	.	.	.
16D#X\	.	16AA-X/	.	16g/	.	16A-/	16g#X/	.	.	.	.
16r	.	16r	.	16r	.	16r	16r	.	.	.	.
16F\	.	16BB-X/	.	16g#X/	8dd#XL\	16B-/	16a#X\	.	.	.	.
16r	.	16r	.	16r	.	16r	16r	.	.	.	.
16G\	.	16GG/	.	16g/	8dd\	16G/	16g/	.	.	.	.
16r	.	16r	.	16r	.	16r	16r	.	.	.	.
8r	.	8r	.	8r	8ccJ\	8r	8r	.	.	.	.
=	=	=	=	=	=	=	=	=	=	=	=
.4G#X\	1r	.4AA-X/	.	.4dd#X\	16ccL\	.4A-/	.4cc\	.	2r	.	1r
.	.	.	.	.	16dd\	.	.	.	.	.	.
.	.	.	.	.	16dd#X\	.	.	.	.	.	.
.	.	.	.	.	16eeJ\	.	.	.	.	.	.
.	.	.	.	.	16ffL\	.	.	.	.	.	.
.	.	.	.	.	16gg\	.	.	.	.	.	.
16A#XL\	.	16GG/L	.	16dd#XL\	16bbJ\	16G/L	16ddL\	.	.	.	.
16G#XJ\	.	16AA-/J	.	16ffJ\	8cccJ\	16A-/J	16ccJ\	.	.	.	.
8Gn\	.	8GG/	.	16dd\	.	8G/	16b\	.	8r	.	.
.	.	.	.	16r	16r	.	16r	.	.	.	.
8r	.	8r	.	8r	8r	8r	8r	.	8gL\	.	.
4r	.	4r	.	4r	4r	4r	4r	.	8d#X\	.	.
.	.	.	.	.	.	.	.	.	8fJ\	.	.
=	=	=	=	=	=	=	=	=	=	=	=
8CCL\	1r	8C/	.	1r	1r	8c/	8g/L	.	8cL\	.	8ccL\
16GGL\	.	8r	.	.	.	8r	16c/Jk	.	16gJ\k	.	16ggJ\k
16GGJ\	.	.	.	.	.	.	16r	.	16r	.	16r
8GGL\	.	8C/	.	.	.	8c/	8g/L	.	8cL\	.	8ccL\
8FFJ\	.	8r	.	.	.	8r	16d/Jk	.	16fJ\k	.	16ffJ\k
.	.	.	.	.	.	.	16r	.	16r	.	16r
8DD#X/L	.	8C/	.	.	.	8c/	8g/L	.	8c/L	.	8ccL\
8DDn/	.	8r	.	.	.	8r	16d#X/Jk	.	16d#X/Jk	.	16dd#XJ\k
.	.	.	.	.	.	.	16r	.	16r	.	16r
8CC/	.	8C/	.	.	.	8c/	8g/L	.	8c/L	.	8ccL\
8AAA#X/J	.	8r	.	.	.	8r	16g#X/Jk	.	16d/Jk	.	16ddnJ\k
.	.	.	.	.	.	.	16r	.	16r	.	16r
=	=	=	=	=	=	=	=	=	=	=	=
8GGG#X/L	1r	8G\	.	1r	2r	8g\	8f/L	.	8cL\	.	8ccL\
8CC/	.	8r	.	.	.	8r	16g/Jk	.	16gJ\k	.	16ggJ\k
.	.	.	.	.	.	.	16r	.	16r	.	16r
8CC#X/	.	8G\	.	.	.	8g\	16f/	.	16c/	.	16ff\
.	.	.	.	.	.	.	16r	.	16r	.	16r
8DD/J	.	8r	.	.	.	8r	16g/L	.	16g#XL\	.	2r
.	.	.	.	.	.	.	16g/J	.	16gJ\	.	.
16DD#X/KL	.	8F\	.	.	8ggL\	8f\	16g/L	.	16fL\	.	.
8DD#/	.	.	.	.	.	.	16g/	.	16d#XJ\	.	.
.	.	8r	.	.	16ggJ\k	8r	16g/J	.	4c/	.	.
8DD#/	.	.	.	.	16r	.	16r	.	.	.	.
.	.	4D#X\	.	.	16r	8d#X\	4r	.	.	.	.
16DDn/L	.	.	.	.	16gg\	.	.	.	.	.	.
16DD/	.	.	.	.	16r	8r	.	.	8r	.	8r
16CCn/J	.	.	.	.	16ff\	.	.	.	.	.	.
=	=	=	=	=	=	=	=	=	=	=	=
16FFF/	1r	8FL\	.	1r	.8dd#X\	8c/	8f/L	.	2r	.	2r
16r	.	.	.	.	.	.	.	.	.	.	.
8r	.	8F\	.	.	.	8r	8f/	.	.	.	.
.	.	.	.	.	16r	.	.	.	.	.	.
16FFF/	.	8F\	.	.	4r	8c/	8f/	.	.	.	.
16r	.	.	.	.	.	.	.	.	.	.	.
16FFF/	.	8FJ\	.	.	.	8r	8f/J	.	.	.	.
16r	.	.	.	.	.	.	.	.	.	.	.
16CC/	.	8cL\	.	.	2r	8g\	8ccL\	.	8r	.	8r
16r	.	.	.	.	.	.	.	.	.	.	.
8r	.	8c\	.	.	.	8r	8cc\	.	8r	.	8r
16CC/	.	8c\	.	.	.	8g\	8cc\	.	16c/	.	16cc\
16r	.	.	.	.	.	.	.	.	16r	.	16r
16CC/	.	8cJ\	.	.	.	8r	8ccJ\	.	16c/	.	16cc\
16r	.	.	.	.	.	.	.	.	16r	.	16r
=	=	=	=	=	=	=	=	=	=	=	=
8GGG#X/L	1r	8G#XL\	.	2r	2r	8g#XL\	8g#X/L	.	8d#XL\	.	8dd#XL\
8GGG#X/	.	8G#X\	.	.	.	8g#X\	8g#X/	.	8d#X\	.	8dd#X\
8GGG#X/	.	8G#X\	.	.	.	8g#X\	8g#X/	.	8d#X\	.	8dd#X\
8GGG#X/J	.	8G#XJ\	.	.	.	8g#XJ\	8g#X/J	.	8d#XJ\	.	8dd#XJ\
8AAA#X/L	.	8GnL\	.	8dd#XL\	8dd#XL\	8gL\	8g/L	.	8dL\	.	8ddnL\
8AAA#X/	.	8G\	.	8dd#XJ\	8dd#XJ\	8g\	8g/	.	8d\	.	8dd\
8BBB/	.	8G\	.	16ddL\	16ddL\	8g\	8g/	.	8d#X\	.	8dd#X\
.	.	.	.	16cc\	16ccJ\	.	.	.	.	.	.
8BBB/J	.	8GJ\	.	16b\	8bJ\	8gJ\	8g/J	.	8d#XJ\	.	8dd#XJ\
.	.	.	.	16ccJ[\	.	.	.	.	.	.	.
=	=	=	=	=	=	=	=	=	=	=	=
8CCL\	1r	16C/	.	.8cc\]	4cc\	16c/	16cc\	.	16g\	.	16gg\
.	.	16r	.	.	.	16r	16r	.	16r	.	16r
8GG\	.	8r	.	.	.	8r	8r	.	8r	.	8r
.	.	.	.	16r	.	.	.	.	.	.	.
8CC\	.	16C/	.	4r	4r	16c/	16cc\	.	16g\	.	16gg\
.	.	16r	.	.	.	16r	16r	.	16r	.	16r
8FFJ\	.	16C/	.	.	.	16c/	8r	.	16g\	.	16gg\
.	.	16r	.	.	.	16r	.	.	16r	.	16r
8CC/L	.	16GG/	.	2r	2r	16G/	16dd\	.	16f\	.	16ff\
.	.	16r	.	.	.	16r	16r	.	16r	.	16r
8DD#X/	.	8r	.	.	.	8r	8r	.	8r	.	8r
8CC/	.	16GG/	.	.	.	16G/	16dd\	.	16f\	.	16ff\
.	.	16r	.	.	.	16r	16r	.	16r	.	16r
8DDn/J	.	16GG/	.	.	.	16G/	8r	.	16f\	.	16ff\
.	.	16r	.	.	.	16r	.	.	16r	.	16r
=	=	=	=	=	=	=	=	=	=	=	=
8CCL\	1r	16C/	.	2r	2r	16c/	16cc\	.	16g\	.	16gg\
.	.	16r	.	.	.	16r	16r	.	16r	.	16r
8GG\	.	8r	.	.	.	8r	8r	.	8r	.	8r
8CC\	.	16C/	.	.	.	16c/	16cc\	.	16g\	.	16gg\
.	.	16r	.	.	.	16r	16r	.	16r	.	16r
8GGJ\	.	16C/	.	.	.	16c/	16r	.	16g\	.	16gg\
.	.	16r	.	.	.	16r	16r	.	16r	.	16r
8GG#XL\	.	8D#X/L	.	8g/L	8ggL\	8d#X/L	8dd#XL\	.	8g#XL\	.	8gg#XL\
8GGn\	.	8Dn/	.	16g/Jk	16ggJ\k	8d/	8dd\	.	8g\	.	8ggn\
.	.	.	.	16r	16r	.	.	.	.	.	.
8FF\	.	8C/	.	8g/L	8ggL\	8c/	8cc\	.	8f\	.	8ff\
8GGJ\	.	8D/J	.	8g#X/J	8gg#XJ\	8d/J	8ddJ\	.	8gJ\	.	8ggJ\
=	=	=	=	=	=	=	=	=	=	=	=
16FFF/	1r	8C/	.	2g/	2gg\	8c/	8f/L	.	1r	.	2r
16r	.	.	.	.	.	.	.	.	.	.	.
8r	.	8r	.	.	.	8r	8f/	.	.	.	.
16FFF/	.	8C/	.	.	.	8c/	8f/	.	.	.	.
16r	.	.	.	.	.	.	.	.	.	.	.
16FFF/	.	8r	.	.	.	8r	8f/J	.	.	.	.
16r	.	.	.	.	.	.	.	.	.	.	.
16CC/	.	8G\	.	2f/	2ff\	8g\	8ccL\	.	.	.	8r
16r	.	.	.	.	.	.	.	.	.	.	.
8r	.	8r	.	.	.	8r	8cc\	.	.	.	8r
16CC/	.	8G\	.	.	.	8g\	8cc\	.	.	.	16cc\
16r	.	.	.	.	.	.	.	.	.	.	16r
16CC/	.	8r	.	.	.	8r	8ccJ\	.	.	.	16cc\
16r	.	.	.	.	.	.	.	.	.	.	16r
=	=	=	=	=	=	=	=	=	=	=	=
8GGG#X/L	1r	8A-XL\	.	2d#X/	2dd#X\	8a-L\	8g#X/L	.	1r	.	8dd#XL\
8GGG#X/	.	8A-X\	.	.	.	8a-\	8g#X/	.	.	.	8dd#X\
8GGG#X/	.	8A-X\	.	.	.	8a-\	8g#X/	.	.	.	8dd#X\
8GGG#X/J	.	8A-XJ\	.	.	.	8a-J\	8g#X/J	.	.	.	8dd#XJ\
8AAA#X/L	.	8GL\	.	4c/	4cc\	8gL\	8g/L	.	.	.	8ddnL\
8AAA#X/	.	8G\	.	.	.	8g\	8g/	.	.	.	8dd\
8BBB/	.	8G\	.	4B/	4b\	8g\	8g/	.	.	.	8b\
8BBB/J	.	8GJ\	.	.	.	8gJ\	8g/J	.	.	.	8bJ\
=	=	=	=	=	=	=	=	=	=	=	=
2CC/	1r	2C/	.	1c[	1cc[	4c/	4r	.	4r	.	4r
.	.	.	.	.	.	4G/	8ccL\	8gL\	.	8ccL\
.	.	.	.	.	.	.	8ccJ\	.	8gJ\	.	8ccJ\
2GGG/	.	2GG/	.	.	.	4G/	8ccL\	.	8gL\	.	8ccL\
.	.	.	.	.	.	.	8dd\	.	8g#X\	.	8dd\
.	.	.	.	.	.	4F/	8cc\	.	8g\	.	8cc\
.	.	.	.	.	.	.	8bJ\	.	8fJ\	.	8bJ\
=	=	=	=	=	=	=	=	=	=	=	=
2GGG#X/	1r	2AA-X/	.	1c]	1cc]	4D#X/	4g/	.	4d#X\	.	4g/
.	.	.	.	.	.	4G#X/	8ccL\	.	8gL\	.	8dd#XL\
.	.	.	.	.	.	.	8ccJ\	.	8gJ\	.	8dd#XJ\
2DD#X\	.	2D#X\	.	.	.	4G/	8ccL\	.	8gL\	.	8dd#XL\
.	.	.	.	.	.	.	8dd\	.	8g#X\	.	8ff\
.	.	.	.	.	.	4D#X/	8cc\	.	8g\	.	8dd#X\
.	.	.	.	.	.	.	8bJ\	.	8fJ\	.	8ddnJ\
=	=	=	=	=	=	=	=	=	=	=	=
8FFF/	1r	8FF/	.	1c[	1cc[	4F/	8ccL\	.	8gL\	.	8dd#XL\
8r	.	8r	.	.	.	.	8b\	.	8f\	.	8ddn\
4r	.	4r	.	.	.	4G#X/	8gJ\	.	8d#XJ\	.	8ccJ\
.	.	.	.	.	.	.	4g#X/	.	4f\	.	4dd\
2CC/	.	2C/	.	.	.	4G/	.	.	.	.	.
.	.	.	.	.	.	.	4g/	.	4d#\	.	4cc\
.	.	.	.	.	.	4c/	.	.	.	.	.
.	.	.	.	.	.	.	8cc[\	.	8g#X[\	.	8ff[\
=	=	=	=	=	=	=	=	=	=	=	=
2GGG#X/	1r	2GG#X/	.	1c]	1cc]	4c/	8cc\]	.	8g#\]	.	8ff\]
.	.	.	.	.	.	.	4cc\	.	4g#X\	.	4ff\
.	.	.	.	.	.	4c/	.	.	.	.	.
.	.	.	.	.	.	.	8cc\	.	8g#X\	.	8ff\
2AAA#X/	.	2AA#X/	.	.	.	4B/	8g#X/L	.	8gL\	.	8dd#XL\
.	.	.	.	.	.	.	8g/	.	8f\	.	8ddn\
.	.	.	.	.	.	4G/	8f/	.	8d#X\	.	8cc\
.	.	.	.	.	.	.	8d#X/J	.	8dJ\	.	8bJ\
=	=	=	=	=	=	=	=	=	=	=	=
8CL\	1r	1r	.	1r	1r	4c/	1r	.	4c/	.	4cc\
16GL\	.	.	.	.	.	.	.	.	.	.	.
16G#XJ\	.	.	.	.	.	.	.	.	.	.	.
8GnL\	.	.	.	.	.	4G/	.	.	8c/	.	8cc\
8CJ\	.	.	.	.	.	.	.	.	4d#X\	.	4dd#X\
8FL\	.	.	.	.	.	4G/	.	.	.	.	.
8D#X\	.	.	.	.	.	.	.	.	4d\	.	4ddn\
8Dn\	.	.	.	.	.	4F/	.	.	.	.	.
8D#XJ\	.	.	.	.	.	.	.	.	8c/[	.	8cc[\
=	=	=	=	=	=	=	=	=	=	=	=
8CL\	1r	1r	.	1r	1r	4D#X/	1r	.	8c/]	.	8cc\]
16GL\	.	.	.	.	.	.	.	.	4c/	.	4cc\
16G#XJ\	.	.	.	.	.	.	.	.	.	.	.
8GnL\	.	.	.	.	.	4A-/	.	.	.	.	.
8CJ\	.	.	.	.	.	.	.	.	8c/	.	8cc\
8FL\	.	.	.	.	.	4G/	.	.	8c--/L	.	8cc--L\
8D#X\	.	.	.	.	.	.	.	.	8c/J	.	8ccnJ\
8Dn\	.	.	.	.	.	4D#X/	.	.	4c--/	.	4cc--\
8FJ\	.	.	.	.	.	.	.	.	.	.	.
=	=	=	=	=	=	=	=	=	=	=	=
8CL\	1r	1r	.	1r	1r	4F/	1r	.	4c/	.	4cc\
16GL\	.	.	.	.	.	.	.	.	.	.	.
16G#XJ\	.	.	.	.	.	.	.	.	.	.	.
8GnL\	.	.	.	.	.	4A-/	.	.	8c/	.	8cc\
8CJ\	.	.	.	.	.	.	.	.	4d#X\	.	4dd#X\
8FL\	.	.	.	.	.	4G/	.	.	.	.	.
8D#X\	.	.	.	.	.	.	.	.	4d#X\	.	4dd#\
8Dn\	.	.	.	.	.	4c/	.	.	.	.	.
8D#XJ\	.	.	.	.	.	.	.	.	8g#X[\	.	8gg#X[\
=	=	=	=	=	=	=	=	=	=	=	=
8CCL\	1r	1r	.	8g#X/	8gg#X\	4c/	8gg#X\	8g#\]	.	8gg#\]
8DD\	.	.	.	4g#X/	4gg#X\	.	4gg#X\	.	4g#X\	.	4gg#X\
8DD#X\	.	.	.	.	.	4c/	.	.	.	.	.
8FFJ\	.	.	.	8g#X/	8gg#X\	.	8gg#X\	.	8g#X\	.	8gg#X\
8GGL\	.	.	.	8g/L	8ggL\	4c/	8ggL\	.	8gL\	.	8ggnL\
8GG#X\	.	.	.	8f/	8ff\	.	8ff\	.	8f\	.	8ff\
8BB\	.	.	.	8d#X/	8dd#X\	4r	8dd#X\	.	8d#X\	.	8dd#X\
8CJ\	.	.	.	8d/J	8ddJ\	.	8ddJ\	.	8dJ\	.	8ddnJ\
=	=	=	=	=	=	=	=	=	=	=	=
8CC/L	1r	8GL\	.	4r	4r	8gL\	8g/L	.	4r	.	8ggL\
8CC/	.	8D#XJ\	.	.	.	8d#XJ\	8d#X/J	.	.	.	8dd#X\
8CC/	.	4r	.	8g/	8gg\	4r	4r	.	8g\	.	8ggJ\
8CC/J	.	.	.	8r	8r	.	.	.	8r	.	8r
8GGG#X/L	.	8GL\	.	4r	4r	8gL\	8g/L	.	4r	.	8ggL\
8GGG#X/	.	8D#XJ\	.	.	.	8d#XJ\	8d#X/J	.	.	.	8dd#X\
8GGG#X/	.	4r	.	8g/	8gg\	4r	4r	.	8g\	.	8ggJ\
8GGG#X/J	.	.	.	8r	8r	.	.	.	8r	.	8r
=	=	=	=	=	=	=	=	=	=	=	=
8DD#XL\	1r	8GL\	.	2r	2r	8G/L	8g/L	.	2r	.	8ggL\
8DD#X\	.	8G\	.	.	.	8G/	8g/	.	.	.	8gg\
8DD#X\	.	8G\	.	.	.	8G/	8g/	.	.	.	8gg\
8DD#XJ\	.	8GJ\	.	.	.	8G/J	8g/J	.	.	.	8ggJ\
8AAA#X/L	.	8FL\	.	8f/L	8ffL\	8F/L	8f/L	.	8fL\	.	8ffL\
8AAA#X/	.	8FJ\	.	8f/J	8ffJ\	8F/J	8f/J	.	8fJ\	.	8ffJ\
8AAA#X/	.	4G\	.	4g/	4gg\	4G/	4g/	.	4g\	.	4gg\
8AAA#X/J	.	.	.	.	.	.	.	.	.	.	.
=	=	=	=	=	=	=	=	=	=	=	=
8CC/L	1r	2r	.	1r	1r	2r	2r	.	8d#XL\	.	8dd#XL\
8CC/	.	.	.	.	.	.	.	.	8d#X\	.	8dd#X\
8CC/	.	.	.	.	.	.	.	.	8d#X\	.	8dd#X\
8CC/J	.	.	.	.	.	.	.	.	8d#XJ\	.	8dd#XJ\
8GGG#X/L	.	8r	.	.	.	8r	8r	.	8gL\	.	8ggL\
8GGG#X/	.	16D#XL\	.	.	.	16d#XL\	16a#XL\	.	16d#XL\	.	16dd#XL\
.	.	16D#XJ\	.	.	.	16d#XJ\	16a#XJ\	.	16d#XJ\	.	16dd#XJ\
8GGG#X/	.	4D#X\	.	.	.	4d#X\	4a#X\	.	4d#X\	.	4dd#\
8GGG#X/J	.	.	.	.	.	.	.	.	.	.	.
=	=	=	=	=	=	=	=	=	=	=	=
8DD#XL\	1r	1r	.	8g/L	8ggL\	1r	1r	.	8gL\	.	8ggL\
8DD#X\	.	.	.	8g/	8gg\	.	.	.	8g\	.	8gg\
8DD#X\	.	.	.	8g/	8gg\	.	.	.	8g\	.	8gg\
8DD#XJ\	.	.	.	8g#X/J	8gg#XJ\	.	.	.	8g#XJ\	.	8gg#XJ\
8AAA#X/L	.	.	.	8g/L	8ggL\	.	.	.	8gL\	.	8ggnL\
8AAA#X/	.	.	.	16f/L	16ffL\	.	.	.	16fL\	.	16ffL\
.	.	.	.	16f/J	16ffJ\	.	.	.	16fJ\	.	16ffJ\
8AAA#X/	.	.	.	4f/	4ff\	.	.	.	4f\	.	4ff\
8AAA#X/J	.	.	.	.	.	.	.	.	.	.	.
=	=	=	=	=	=	=	=	=	=	=	=
8CC/L	1r	8DD#X/L	.	8d#X/L	8ggL\	8D#X/L	8d#X/L	.	8gL\	.	8ggL\
8CC/J	.	8DD#X/J	.	8d#X/J	8dd#XJ\	8D#X/J	8d#X/J	.	8d#XJ\	.	8dd#XJ\
8r	.	4r	.	4r	4r	4r	4r	.	4r	.	4r
8r	.	.	.	.	.	.	.	.	.	.	.
8GG#XL\	.	8FF/L	.	8f/L	8ggL\	8F/L	8f/L	.	8gL\	.	8ggL\
8GG#XJ\	.	8FF/J	.	8f/J	8dd#XJ\	8F/J	8f/J	.	8d#XJ\	.	8dd#XJ\
8r	.	4r	.	4r	4r	4r	4r	.	4r	.	4r
8r	.	.	.	.	.	.	.	.	.	.	.
=	=	=	=	=	=	=	=	=	=	=	=
8GGG/L	1r	8GG/L	.	8g/L	8ggL\	8G/L	8g/L	.	8gL\	.	8ggL\
8GGG/J	.	8GG/J	.	8g/	8gg\	8G/J	8g/	.	8g\	.	8gg\
8r	.	8r	.	8g/	8gg\	8r	8g/	.	8g\	.	8gg\
8r	.	8GG/	.	8g/J	8ggJ\	8G/	8g/J	.	8gJ\	.	8ggJ\
8AAA#X/L	.	8AA-X/L	.	8g#X/L	8gg#XL\	8G#X/L	8g#X/L	.	8g#XL\	.	8gg#XL\
8AAA#X/	.	8GG/J	.	8g/J	8ggJ\	8G/J	8g/J	.	8gJ\	.	8ggnJ\
8AAA#X/	.	16FF/KL	.	16f/KL	16ffKL\	16F/KL	16f/KL	.	16fKL\	.	16ffKL\
.	.	.8GG/J	.	.8g/J	.8ggJ\	.8G/J	.8g/J	.	.8gJ\	.	.8ggJ\
8AAA#X/J	.	.	.	.	.	.	.	.	.	.	.
=	=	=	=	=	=	=	=	=	=	=	=
8CC/L	1r	.8DD#X/L	.	.8d#X/L	.8dd#XL\	.8D#X/L	.8d#X/L	.	.8d#X/L	.	.8dd#XL\
8CC/	.	.	.	.	.	.	.	.	.	.	.
.	.	.8CC/	.	.8A#X/	.8a#X\	.8C/	.8A#X/	.	.8A#X/	.	.8a#X\
8CC/	.	.	.	.	.	.	.	.	.	.	.
8CC/J	.	8DD#X/J	.	8d#X/J	8dd#J\	8D#X/J	8d#X/J	.	8d#X/J	.	8dd#J\
8GGG#X/L	.	.8FF/L	.	.8f/L	.8ffL\	.8F/L	.8f/L	.	.8fL\	.	.8ffL\
8GGG#X/	.	.	.	.	.	.	.	.	.	.	.
.	.	.8DD#X/	.	.8c/	.8cc\	.8D#X/	.8c/	.	.8c\	.	.8cc\
8GGG#X/	.	.	.	.	.	.	.	.	.	.	.
8GGG#X/J	.	8FF/J	.	8f/J	8ffJ\	8F/J	8f/J	.	8fJ\	.	8ffJ\
=	=	=	=	=	=	=	=	=	=	=	=
8DD#XL\	1r	.8GG/L	.	.8g/L	.8ggL\	.8G/L	.8g/L	.	.8gL\	.	.8ggL\
8DD#X\	.	.	.	.	.	.	.	.	.	.	.
.	.	.8FF/	.	.8d#X/	.8dd#X\	.8F/	.8d#X/	.	.8d#X\	.	.8dd#X\
8DD#X\	.	.	.	.	.	.	.	.	.	.	.
8DD#XJ\	.	8GG/J	.	8g/J	8ggJ\	8G/J	8g/J	.	8gJ\	.	8ggJ\
8AAA#X/L	.	8AA-X/L	.	8g#X/L	8gg#XL\	8G#X/L	8g#X/L	.	8g#XL\	.	8gg#XL\
8AAA#X/	.	8GG/	.	8g/	8gg\	8G/	8g/	.	8g\	.	8ggn\
8AAA#X/	.	8FF/	.	8f/	8ff\	8F/	8f/	.	8f\	.	8ff\
8AAA#X/J	.	8GG/J	.	8g/J	8ggJ\	8G/J	8g/J	.	8gJ\	.	8ggJ\
=	=	=	=	=	=	=	=	=	=	=	=
8CC/L	1r	1r	.	8r	8r	8r	8r	.	8r	.	8r
8CC/	.	.	.	8d#X/L	8dd#XL\	8G/L	8g/L	.	8d#X/L	.	8dd#XL\
8CC/	.	.	.	8d/	8dd\	8F/	8f/	.	8d/	.	8ddn\
8CC/J	.	.	.	8c/J	8ccJ\	8D#X/J	8d#X/J	.	8c/J	.	8ccJ\
8AAA#X/L	.	.	.	16d#X/KL	16dd#XKL\	16G/KL	16g/KL	.	16d#X/KL	.	16dd#XKL\
.	.	.	.	8d/J	8ddJ\	8F/J	8f/J	.	8d/J	.	8ddnJ\
8AAA#X/	.	.	.	.	.	.	.	.	.	.	.
.	.	.	.	4c/	4cc\	4D#X/	4d#X/	.	4c/	.	4cc\
8AAA#X/	.	.	.	.	.	.	.	.	.	.	.
8AAA#X/J	.	.	.	.	.	.	.	.	.	.	.
.	.	.	.	16r	16r	16r	16r	.	16r	.	16r
=	=	=	=	=	=	=	=	=	=	=	=
8GGG#X/L	1r	1r	.	8r	8r	8r	8r	.	8r	.	8r
8GGG#X/	.	.	.	8d#X/L	8dd#XL\	8G/L	8g/L	.	8d#X/L	.	8dd#XL\
8GGG#X/	.	.	.	8d/	8dd\	8F/	8f/	.	8d/	.	8ddn\
8GGG#X/J	.	.	.	8c/J	8ccJ\	8D#X/J	8d#X/J	.	8c/J	.	8ccJ\
8GGGn/L	.	.	.	.8B/L	.8bL\	.8D/L	.8d/L	.	.8B/L	.	.8bL\
8GGG/	.	.	.	.	.	.	.	.	.	.	.
.	.	.	.	.8c/	.8cc\	.8D#X/	.8d#X/	.	.8c/	.	.8cc\
8GGG/	.	.	.	.	.	.	.	.	.	.	.
8GGG/J	.	.	.	8d/J	8ddJ\	8F/J	8g/J	.	8d/J	.	8ddJ\
=	=	=	=	=	=	=	=	=	=	=	=
8CC/L	1r	1r	.	8r	8r	8r	8r	.	8r	.	8r
8CC/	.	.	.	8d#X/L	8dd#XL\	8G/L	8g/L	.	8d#X/L	.	8dd#XL\
8CC/	.	.	.	8d/	8dd\	8F/	8f/	.	8d/	.	8ddn\
8CC/J	.	.	.	8c/J	8ccJ\	8D#X/J	8d#X/J	.	8c/J	.	8ccJ\
8DDL\	.	.	.	16f/KL	16ffKL\	16G#X/KL	16g#X/KL	.	16fKL\	.	16ffKL\
.	.	.	.	8e--X/	8ee-\	8G/	8g/	.	8d#X\	.	8dd#X\
8DD\	.	.	.	.	.	.	.	.	.	.	.
.	.	.	.	.8d/	.8dd\	.8F/	.8f/	.	.8d\	.	.8ddn\
8DD\	.	.	.	.	.	.	.	.	.	.	.
8DDJ\	.	.	.	8c/J	8ccJ\	8D#X/J	8d#X/J	.	8cJ\	.	8ccJ\
=	=	=	=	=	=	=	=	=	=	=	=
8DD#XL\	1r	1r	.	.4c/	.4cc\	.4D#X/	.4d#X/	.	.4c/	.	.4cc\
8DD#X\	.	.	.	.	.	.	.	.	.	.	.
8DD#X\	.	.	.	.	.	.	.	.	.	.	.
8DD#XJ\	.	.	.	16d/L	16bL\	16F/L	16d/L	.	16d/L	.	16ddL\
.	.	.	.	16c/J	16ccJ\	16D#X/J	16d#X/J	.	16c/J	.	16ccJ\
8GGL\	.	.	.	4B/	4b\	2D/	4d/	.	4B/	.	4b\
8GG\	.	.	.	.	.	.	.	.	.	.	.
8GG\	.	.	.	4G/	4g/	.	4B/	.	4G/	.	4gg\
8GGJ\	.	.	.	.	.	.	.	.	.	.	.
=	=	=	=	=	=	=	=	=	=	=	=
8GGG#X/L	1r	1r	.	8r	8r	8r	8r	.	8r	.	8r
8GGG#X/	.	.	.	8c/L	8ccL\	8D#X/L	8c/L	.	8c/L	.	8ccL\
8GGG#X/	.	.	.	8c/	8cc\	8D#X/	8c/	.	8c/	.	8cc\
8GGG#X/J	.	.	.	8c/J	8ccJ\	8D#X/J	8c/J	.	8c/J	.	8ccJ\
8AAA#X/L	.	.	.	.8d/L	.8ddL\	.8F/L	.8d/L	.	.8d/L	.	.8ddL\
8AAA#X/	.	.	.	.	.	.	.	.	.	.	.
.	.	.	.	.8c/	.8cc\	.8D#X/	.8c/	.	.8c/	.	.8cc\
8AAA#X/	.	.	.	.	.	.	.	.	.	.	.
8AAA#X/J	.	.	.	8d/J	8ddJ\	8F/J	8d/J	.	8d/J	.	8ddJ\
=	=	=	=	=	=	=	=	=	=	=	=
8CC/L	1r	1r	.	8d#X/L	8dd#XL\	8G/L	8d#X/L	.	8d#X/L	.	8dd#XL\
8CC/	.	.	.	8d/	8dd\	8F/	8d/	.	8d/	.	8ddn\
8CC/	.	.	.	8c/	8cc\	8D#X/	8c/	.	8c/	.	8cc\
8CC/J	.	.	.	8B/J	8bJ\	8D/J	8B/J	.	8B/J	.	8bJ\
8GGG/L	.	.	.	.8B/L	.8bL\	.8D/L	.8B/L	.	.8B/L	.	.8bL\
8GGG/	.	.	.	.	.	.	.	.	.	.	.
.	.	.	.	.8c/	.8cc\	.8D#X/	.8c/	.	.8c/	.	.8cc\
8GGG/	.	.	.	.	.	.	.	.	.	.	.
8GGG/J	.	.	.	8d/J	8ddJ\	8F/J	8d/J	.	8d/J	.	8ddJ\
=	=	=	=	=	=	=	=	=	=	=	=
8GGG#X/L	1r	1r	.	8r	8r	8r	8r	.	8r	.	8r
8GGG#X/	.	.	.	8c/L	8ccL\	8D#X/L	8c/L	.	8c/L	.	8ccL\
8GGG#X/	.	.	.	8c/	8cc\	8D#X/	8c/	.	8c/	.	8cc\
8GGG#X/J	.	.	.	8c/J	8ccJ\	8D#X/J	8c/J	.	8c/J	.	8ccJ\
8AAA#X/L	.	.	.	.8d/L	.8ddL\	.8F/L	.8d/L	.	.8d/L	.	.8ddL\
8AAA#X/	.	.	.	.	.	.	.	.	.	.	.
.	.	.	.	.8c/	.8cc\	.8D#X/	.8c/	.	.8c/	.	.8cc\
8AAA#X/	.	.	.	.	.	.	.	.	.	.	.
8AAA#X/J	.	.	.	8B/J	8bJ\	8D/J	8B/J	.	8B/J	.	8bJ\
=	=	=	=	=	=	=	=	=	=	=	=
4BBB#X/	1r	1r	.	.2c/	.2cc\	2D#X/	.2c/	.	.2c/	.	.2cc\
4GGG/	.	.	.	.	.	.	.	.	.	.	.
4BBB#X/	.	.	.	.	.	2r	.	.	.	.	.
4r	.	.	.	4r	4r	.	4r	.	4r	.	4r
=	=	=	=	=	=	=	=	=	=	=	=
8CCL\	1r	1r	.	1r	1r	8c/	8g/L	.	8cL\	.	8ccL\
16GGL\	.	.	.	.	.	8r	16c/Jk	.	16gJ\k	.	16ggJ\k
16GGJ\	.	.	.	.	.	.	16r	.	16r	.	16r
8GGL\	.	.	.	.	.	8c/	8g/L	.	8cL\	.	8ccL\
8FFJ\	.	.	.	.	.	8r	16d/Jk	.	16fJ\k	.	16ffJ\k
.	.	.	.	.	.	.	16r	.	16r	.	16r
8DD#X/L	.	.	.	.	.	8c/	8g/L	.	8c/L	.	8ccL\
8DDn/	.	.	.	.	.	8r	16d#X/Jk	.	16d#X/Jk	.	16dd#XJ\k
.	.	.	.	.	.	.	16r	.	16r	.	16r
8CC/	.	.	.	.	.	8c/	8g/L	.	8c/L	.	8ccL\
8AAA#X/J	.	.	.	.	.	8r	16g#X/Jk	.	16d/Jk	.	16ddnJ\k
.	.	.	.	.	.	.	16r	.	16r	.	16r
=	=	=	=	=	=	=	=	=	=	=	=
8GGG#X/L	1r	1r	.	1r	2r	8g\	8f/L	.	8cL\	.	8ccL\
8CC/	.	.	.	.	.	8r	16g/Jk	.	16gJ\k	.	16ggJ\k
.	.	.	.	.	.	.	16r	.	16r	.	16r
8CC#X/	.	.	.	.	.	8g\	16f/	.	16c/	.	16ff\
.	.	.	.	.	.	.	16r	.	16r	.	16r
8DD/J	.	.	.	.	.	8r	16g/L	.	16g#XL\	.	2r
.	.	.	.	.	.	.	16g/J	.	16gJ\	.	.
16DD#X/KL	.	.	.	.	8ggL\	8f\	16g/L	.	16fL\	.	.
8DD#/	.	.	.	.	.	.	16g/	.	16d#XJ\	.	.
.	.	.	.	.	16ggJ\k	8r	16g/J	.	4c/	.	.
8DD#/	.	.	.	.	16r	.	16r	.	.	.	.
.	.	.	.	.	16r	8d#X\	4r	.	.	.	.
16DDn/L	.	.	.	.	16gg\	.	.	.	.	.	.
16DD/	.	.	.	.	16r	8r	.	.	8r	.	8r
16CCn/J	.	.	.	.	16ff\	.	.	.	.	.	.
=	=	=	=	=	=	=	=	=	=	=	=
16FFF/	1r	1r	.	1r	.8dd#X\	8c/	8f/L	.	2r	.	2r
16r	.	.	.	.	.	.	.	.	.	.	.
8r	.	.	.	.	.	8r	8f/	.	.	.	.
.	.	.	.	.	16r	.	.	.	.	.	.
16FFF/	.	.	.	.	4r	8c/	8f/	.	.	.	.
16r	.	.	.	.	.	.	.	.	.	.	.
16FFF/	.	.	.	.	.	8r	8f/J	.	.	.	.
16r	.	.	.	.	.	.	.	.	.	.	.
16CC/	.	.	.	.	2r	8g\	8ccL\	.	8r	.	8r
16r	.	.	.	.	.	.	.	.	.	.	.
8r	.	.	.	.	.	8r	8cc\	.	8r	.	8r
16CC/	.	.	.	.	.	8g\	8cc\	.	16c/	.	16cc\
16r	.	.	.	.	.	.	.	.	16r	.	16r
16CC/	.	.	.	.	.	8r	8ccJ\	.	16c/	.	16cc\
16r	.	.	.	.	.	.	.	.	16r	.	16r
=	=	=	=	=	=	=	=	=	=	=	=
8GGG#X/L	1r	1r	.	2r	2r	8a-L\	8g#X/L	.	8d#XL\	.	8dd#XL\
8GGG#X/	.	.	.	.	.	8a-\	8g#X/	.	8d#X\	.	8dd#X\
8GGG#X/	.	.	.	.	.	8a-\	8g#X/	.	8d#X\	.	8dd#X\
8GGG#X/J	.	.	.	.	.	8a-J\	8g#X/J	.	8d#XJ\	.	8dd#XJ\
8AAA#X/L	.	.	.	8dd#XL\	8dd#XL\	8gL\	8g/L	.	8dL\	.	8ddnL\
8AAA#X/	.	.	.	8dd#XJ\	8dd#XJ\	8g\	8g/	.	8d\	.	8dd\
8BBB/	.	.	.	16ddL\	16ddL\	8g\	8g/	.	8d#X\	.	8dd#X\
.	.	.	.	16cc\	16ccJ\	.	.	.	.	.	.
8BBB/J	.	.	.	16b\	8bJ\	8gJ\	8g/J	.	8d#XJ\	.	8dd#XJ\
.	.	.	.	16ccJ[\	.	.	.	.	.	.	.
=	=	=	=	=	=	=	=	=	=	=	=
8CCL\	1r	1r	.	.8cc\]	4cc\	16c/	16cc\	.	16g\	.	16gg\
.	.	.	.	.	.	16r	16r	.	16r	.	16r
8GG\	.	.	.	.	.	8r	8r	.	8r	.	8r
.	.	.	.	16r	.	.	.	.	.	.	.
8CC\	.	.	.	4r	4r	16c/	16cc\	.	16g\	.	16gg\
.	.	.	.	.	.	16r	16r	.	16r	.	16r
8FFJ\	.	.	.	.	.	16c/	8r	.	16g\	.	16gg\
.	.	.	.	.	.	16r	.	.	16r	.	16r
8CC/L	.	.	.	2r	2r	16G/	16dd\	.	16f\	.	16ff\
.	.	.	.	.	.	16r	16r	.	16r	.	16r
8DD#X/	.	.	.	.	.	8r	8r	.	8r	.	8r
8CC/	.	.	.	.	.	16G/	16dd\	.	16f\	.	16ff\
.	.	.	.	.	.	16r	16r	.	16r	.	16r
8DDn/J	.	.	.	.	.	16G/	8r	.	16f\	.	16ff\
.	.	.	.	.	.	16r	.	.	16r	.	16r
=	=	=	=	=	=	=	=	=	=	=	=
8CCL\	1r	1r	.	2r	2r	16c/	16cc\	.	16g\	.	16gg\
.	.	.	.	.	.	16r	16r	.	16r	.	16r
8GG\	.	.	.	.	.	8r	8r	.	8r	.	8r
8CC\	.	.	.	.	.	16c/	16cc\	.	16g\	.	16gg\
.	.	.	.	.	.	16r	16r	.	16r	.	16r
8GGJ\	.	.	.	.	.	16c/	16r	.	16g\	.	16gg\
.	.	.	.	.	.	16r	16r	.	16r	.	16r
8GG#XL\	.	.	.	8g/L	8ggL\	8d#X/L	8dd#XL\	.	8g#XL\	.	8gg#XL\
8GGn\	.	.	.	16g/Jk	16ggJ\k	8d/	8dd\	.	8g\	.	8ggn\
.	.	.	.	16r	16r	.	.	.	.	.	.
8FF\	.	.	.	8g/L	8ggL\	8c/	8cc\	.	8f\	.	8ff\
8GGJ\	.	.	.	8g#X/J	8gg#XJ\	8d/J	8ddJ\	.	8gJ\	.	8ggJ\
=	=	=	=	=	=	=	=	=	=	=	=
16FFF/	1r	1r	.	2g/	2gg\	8c/	8f/L	.	2r	.	2r
16r	.	.	.	.	.	.	.	.	.	.	.
8r	.	.	.	.	.	8r	8f/	.	.	.	.
16FFF/	.	.	.	.	.	8c/	8f/	.	.	.	.
16r	.	.	.	.	.	.	.	.	.	.	.
16FFF/	.	.	.	.	.	8r	8f/J	.	.	.	.
16r	.	.	.	.	.	.	.	.	.	.	.
16CC/	.	.	.	2f/	2ff\	8g\	8ccL\	.	8r	.	8r
16r	.	.	.	.	.	.	.	.	.	.	.
8r	.	.	.	.	.	8r	8cc\	.	8r	.	8r
16CC/	.	.	.	.	.	8g\	8cc\	.	16c/	.	16cc\
16r	.	.	.	.	.	.	.	.	16r	.	16r
16CC/	.	.	.	.	.	8r	8ccJ\	.	16c/	.	16cc\
16r	.	.	.	.	.	.	.	.	16r	.	16r
=	=	=	=	=	=	=	=	=	=	=	=
8GGG#X/L	1r	1r	.	2d#X/	2dd#X\	8a-L\	8g#X/L	.	8d#XL\	.	8dd#XL\
8GGG#X/	.	.	.	.	.	8a-\	8g#X/	.	8d#X\	.	8dd#X\
8GGG#X/	.	.	.	.	.	8a-\	8g#X/	.	8d#X\	.	8dd#X\
8GGG#X/J	.	.	.	.	.	8a-J\	8g#X/J	.	8d#XJ\	.	8dd#XJ\
8AAA#X/L	.	.	.	4c/	4cc\	8gL\	8g/L	.	8dL\	.	8ddnL\
8AAA#X/	.	.	.	.	.	8g\	8g/	.	8d\	.	8dd\
8DD#X/	.	.	.	4B/	4b\	8g\	8g/	.	8d#X\	.	8b\
8DD#X/J	.	.	.	.	.	8gJ\	8g/J	.	8d#J\	.	8bJ\
=	=	=	=	=	=	=	=	=	=	=	=
8CCL\	1r	16c\	.	1r	4r	8c/	4r	.	4r	.	4dd#X\
.	.	16r	.	.	.	.	.	.	.	.	.
8GG#X\	.	16B\	.	.	.	8r	.	.	.	.	.
.	.	16r	.	.	.	.	.	.	.	.	.
8CC\	.	16c\	.	.	4gg\	8g\	4g/	.	4g\	.	4gg\
.	.	16r	.	.	.	.	.	.	.	.	.
8GGnJ\	.	.8d\	.	.	.	8r	.	.	.	.	.
8CCL\	.	.	.	.	4r	8f\	4r	.	4r	.	4ff\
.	.	16r	.	.	.	.	.	.	.	.	.
8FF\	.	8c\	.	.	.	8r	.	.	.	.	.
8CC\	.	8B\	.	.	4gg\	8g\	4g/	.	4g\	.	4gg\
8GGJ\	.	8r	.	.	.	8r	.	.	.	.	.
=	=	=	=	=	=	=	=	=	=	=	=
8CCL\	1r	4r	.	1r	8dd#XL\	8c/	1r	.	8d#XL\	.	8ggL\
8GG#X\	.	.	.	.	8dd#X\	8r	.	.	8d#X\	.	8gg\
8CC\	.	8C/	.	.	8dd#X\	8g\	.	.	8d#X\	.	8gg\
8GGnJ\	.	4r	.	.	8dd#XJ\	8r	.	.	8d#XJ\	.	8ggJ\
8CCL\	.	.	.	.	8ffL\	8f\	.	.	8fL\	.	8gg#XL\
8FF\	.	8G\	.	.	8dd#X\	8r	.	.	8d#X\	.	8ggn\
8CC\	.	4r	.	.	8dd\	8g\	.	.	8d\	.	8ff\
8GGJ\	.	.	.	.	8dd#XJ\	8r	.	.	8d#XJ\	.	8ggJ\
=	=	=	=	=	=	=	=	=	=	=	=
8CCL\	1r	8F\	.	1r	8dd#X\	8c/	1r	.	8d#X\	.	8dd#X\
8GG#X\	.	8r	.	.	8r	8r	.	.	8r	.	8r
8CC\	.	8FL\	.	.	8dd#XL\	8g\	.	.	8d#XL\	.	8dd#XL\
8GGnJ\	.	8GJ\	.	.	8ffJ\	8r	.	.	8fJ\	.	8ffJ\
8CCL\	.	4F\	.	.	4dd#X\	8f\	.	.	4d#X\	.	4dd#X\
8FF\	.	.	.	.	.	8r	.	.	.	.	.
8CC\	.	4G\	.	.	4cc\	8g\	.	.	4c/	.	4gg\
8GGJ\	.	.	.	.	.	8r	.	.	.	.	.
=	=	=	=	=	=	=	=	=	=	=	=
8GGL\	1r	8GL\	.	1r	1r	8c/	2r	.	8gL\	.	8ggL\
8GG\	.	8G\	.	.	.	8r	.	.	8g\	.	8gg\
8GG\	.	8G\	.	.	.	8g\	.	.	8g\	.	8gg\
8GG#XJ\	.	8G#XJ\	.	.	.	8r	.	.	8g#XJ\	.	8gg#XJ\
8GGnL\	.	8GnL\	.	.	.	8gL\	2r	.	8gL\	.	8ggn\
8FFJ\	.	8FJ\	.	.	.	8fJ\	.	.	8fJ\	.	8r
4DD#X\	.	4D#X\	.	.	.	4d#X\	.	.	4d#X\	.	4r
=	=	=	=	=	=	=	=	=	=	=	=
8CC/	1r	8C/	.	1r	1r	1c[	1cc[	.	8r	.	8r
8r	.	8r	.	.	.	.	.	.	8d#X/L	.	8dd#XL\
4r	.	4r	.	.	.	.	.	.	8d/	.	8ddn\
.	.	.	.	.	.	.	.	.	8c/J	.	8ccJ\
2r	.	2r	.	.	.	.	.	.	16d#X/KL	.	16dd#XKL\
.	.	.	.	.	.	.	.	.	8d/J	.	8ddnJ\
.	.	.	.	.	.	.	.	.	4c/	.	4cc\
.	.	.	.	.	.	.	.	.	16r	.	16r
=	=	=	=	=	=	=	=	=	=	=	=
1r	1r	1r	.	1r	1r	2c/]	2cc\]	.	8r	.	8r
.	.	.	.	.	.	.	.	.	8d#X/L	.	8dd#XL\
.	.	.	.	.	.	.	.	.	8d/	.	8ddn\
.	.	.	.	.	.	.	.	.	8c/J	.	8ccJ\
.	.	.	.	.	.	4r	4r	.	8B/L	.	.8bL\
.	.	.	.	.	.	.	.	.	16B/K	.	.
.	.	.	.	.	.	.	.	.	.8c/	.	.8cc\
.	.	.	.	.	.	8r	8r	.	.	.	.
.	.	.	.	.	.	8r	8r	.	8d/J	.	8ddJ\
=	=	=	=	=	=	=	=	=	=	=	=
1r	1r	1r	.	1r	1r	1c	1cc	.	8r	.	8r
.	.	.	.	.	.	.	.	.	8d#X/L	.	8dd#XL\
.	.	.	.	.	.	.	.	.	8d/	.	8ddn\
.	.	.	.	.	.	.	.	.	8c/J	.	8ccJ\
.	.	.	.	.	.	.	.	.	16fKL\	.	16ffKL\
.	.	.	.	.	.	.	.	.	8d#X\	.	8ee-X\
.	.	.	.	.	.	.	.	.	.8d\	.	.8dd\
.	.	.	.	.	.	.	.	.	8cJ\	.	8ccJ\
=	=	=	=	=	=	=	=	=	=	=	=
1r	1r	1r	.	1r	1r	2g\	2g/	.	2c/	.	2cc\
.	.	.	.	.	.	16d/L	16bL\	.	16B/L	.	16bL\
.	.	.	.	.	.	16c/J	16bJ\	.	16c/J	.	16ccJ\
.	.	.	.	.	.	.4B/	.4b\	.	.4B/	.	.4b\
=	=	=	=	=	=	=	=	=	=	=	=
8GGG#X/L	1r	1r	.	8r	8r	8r	8r	.	8r	.	8r
8GGG#X/	.	.	.	8c/L	8ccL\	8D#X/L	8c/L	.	8c/L	.	8ccL\
8GGG#X/	.	.	.	8c/	8cc\	8D#X/	8c/	.	8c/	.	8cc\
8GGG#X/J	.	.	.	8c/J	8ccJ\	8D#X/J	8c/J	.	8c/J	.	8ccJ\
8AAA#X/L	.	.	.	.8d/L	.8ddL\	.8F/L	.8d/L	.	.8d/L	.	.8ddL\
8AAA#X/	.	.	.	.	.	.	.	.	.	.	.
.	.	.	.	.8c/	.8cc\	.8D#X/	.8c/	.	.8c/	.	.8cc\
8AAA#X/	.	.	.	.	.	.	.	.	.	.	.
8AAA#X/J	.	.	.	8d/J	8ddJ\	8F/J	8d/J	.	8d/J	.	8ddJ\
=	=	=	=	=	=	=	=	=	=	=	=
8CC/L	1r	1r	.	8d#X/L	8dd#XL\	8G/L	8d#X/L	.	8d#X/L	.	8dd#XL\
8CC/	.	.	.	8d/	8dd\	8F/	8d/	.	8d/	.	8ddn\
8CC/	.	.	.	8c/	8cc\	8D#X/	8c/	.	8c/	.	8cc\
8CC/J	.	.	.	8B/J	8bJ\	8D/J	8B/J	.	8B/J	.	8bJ\
8GGG/L	.	.	.	.8B/L	.8bL\	.8D/L	.8B/L	.	.8B/L	.	.8bL\
8GGG/	.	.	.	.	.	.	.	.	.	.	.
.	.	.	.	.8c/	.8cc\	.8D#X/	.8c/	.	.8c/	.	.8cc\
8GGG/	.	.	.	.	.	.	.	.	.	.	.
8GGG/J	.	.	.	8d/J	8ddJ\	8F/J	8d/J	.	8d/J	.	8ddJ\
=	=	=	=	=	=	=	=	=	=	=	=
8GGG#X/L	1r	1r	.	8r	8r	8r	8r	.	8r	.	8r
8GGG#X/	.	.	.	8c/L	8ccL\	8D#X/L	8c/L	.	8g#XL\	.	8ccL\
8GGG#X/	.	.	.	8c/	8cc\	8D#X/	8c/	.	8g#X\	.	8cc\
8GGG#X/J	.	.	.	8c/J	8ccJ\	8D#X/J	8c/J	.	8g#XJ\	.	8ccJ\
8AAA#X/L	.	.	.	.8d/L	.8ddL\	.8F/L	.8d/L	.	.8bL\	.	.8ddL\
8AAA#X/	.	.	.	.	.	.	.	.	.	.	.
.	.	.	.	.8c/	.8cc\	.8D#X/	.8c/	.	.8g\	.	.8cc\
8AAA#X/	.	.	.	.	.	.	.	.	.	.	.
8AAA#X/J	.	.	.	8B/J	8bJ\	8D/J	8B/J	.	8g#XJ\	.	8bJ\
=	=	=	=	=	=	=	=	=	=	=	=
2BBB#X/	1r	1r	.	2c/	2cc\	2D#X/	2c/	.	2gT\	.	2cc\
4r	.	.	.	4r	4r	4r	4r	.	4r	.	4r
4r	.	.	.	4c/	4cc\	4C/	4c/	.	4c/	.	4cc\
=	=	=	=	=	=	=	=	=	=	=	=
2CC/	1r	1r	.	4g/	4gg\	4G/	4g/	.	4g\	.	4gg\
.	.	.	.	4g/	4gg\	4G/	4g/	.	4g\	.	4gg\
2GG\	.	.	.	8g/L	8ggL\	8G/L	8g/L	.	8gL\	.	8ggL\
.	.	.	.	8g#X/	8gg#X\	8G#X/	8g#X/	.	8g#X\	.	8gg#X\
.	.	.	.	8g/	8gg\	8G/	8g/	.	8g\	.	8ggn\
.	.	.	.	8f/J	8ffJ\	8F/J	8f/J	.	8fJ\	.	8ffJ\
=	=	=	=	=	=	=	=	=	=	=	=
2GG#X\	1r	1r	.	4d#X/	4dd#X\	4D#X/	4d#X/	.	4d#X\	.	4dd#X\
.	.	.	.	8g/L	8ggL\	8G/L	8g/L	.	8gL\	.	8ggL\
.	.	.	.	8g/J	8ggJ\	8G/J	8g/J	.	8gJ\	.	8ggJ\
2D#X\	.	.	.	8g/L	8ggL\	8G/L	8g/L	.	8gL\	.	8ggL\
.	.	.	.	8g#X/	8gg#X\	8G#X/	8g#X/	.	8g#X\	.	8gg#X\
.	.	.	.	8g/	8gg\	8G/	8g/	.	8g\	.	8ggn\
.	.	.	.	8f/J	8ffJ\	8F/J	8f/J	.	8fJ\	.	8ffJ\
=	=	=	=	=	=	=	=	=	=	=	=
2FFF/	1r	1r	.	8g/L	8ggL\	8G/L	8g/L	.	8gL\	.	8ggL\
.	.	.	.	8f/	8ff\	8F/	8f/	.	8f\	.	8ff\
.	.	.	.	8d#X/J	8dd#XJ\	8D#X/J	8d#X/J	.	8d#XJ\	.	8dd#XJ\
.	.	.	.	4f/	4ff\	4F/	4f/	.	4f\	.	4ff\
2CC/	.	.	.	.	.	.	.	.	.	.	.
.	.	.	.	4d#X/	4dd#\	4D#X/	4d#X/	.	4d#X\	.	4dd#X\
.	.	.	.	8g#X/[	8gg#X[\	8G#X/[	8g#X/[	.	8g#X[\	.	8gg#X[\
=	=	=	=	=	=	=	=	=	=	=	=
2GGG#X/	1r	1r	.	8g#/]	8gg#\]	8G#/]	8g#/]	.	8g#\]	.	8gg#\]
.	.	.	.	4g#X/	4gg#X\	4G#X/	4g#X/	.	4g#X\	.	4gg#X\
.	.	.	.	8g#X/	8gg#X\	8G#X/	8g#X/	.	8g#X\	.	8gg#X\
2AAA#X/	.	.	.	8g/L	8ggL\	8G/L	8g/L	.	8gL\	.	8ggnL\
.	.	.	.	8f/	8ff\	8F/	8f/	.	8f\	.	8ff\
.	.	.	.	8d#X/	8dd#X\	8D#X/	8d#X/	.	8d#X\	.	8dd#X\
.	.	.	.	8d/J	8ddJ\	8D/J	8d/J	.	8dJ\	.	8ddnJ\
=	=	=	=	=	=	=	=	=	=	=	=
8CC/L	1r	4r	.	4r	8dd#XL\	4r	4r	.	8d#XL\	.	8dd#XL\
8CC/J	.	.	.	.	8dd#XJ\	.	.	.	8d#XJ\	.	8dd#XJ\
4r	.	8DD#X/L	.	8d#X/L	4r	8D#X/L	8d#X/L	.	4r	.	4r
.	.	8DD#X/J	.	8d#X/J	.	8D#X/J	8d#X/J	.	.	.	.
8DDL\	.	4r	.	4r	8ffL\	4r	4r	.	8fL\	.	8ffL\
8DDJ\	.	.	.	.	8ffJ\	.	.	.	8fJ\	.	8ffJ\
4r	.	8FF/L	.	8f/L	4r	8F/L	8f/L	.	4r	.	4r
.	.	8FF/J	.	8f/J	.	8F/J	8f/J	.	.	.	.
=	=	=	=	=	=	=	=	=	=	=	=
8DD#XL\	1r	4r	.	4r	8ggL\	4r	4r	.	8gL\	.	8ggL\
8DD#XJ\	.	.	.	.	8ggJ\	.	.	.	8gJ\	.	8ggJ\
4r	.	8GG/L	.	8g/L	8r	8G/L	8g/L	.	8r	.	8r
.	.	8GG/J	.	8g/J	8gg\	8G/J	8g/J	.	8g\	.	8gg\
2FF\	.	2r	.	8g#X/L	8gg#XL\	8G#X/L	8g#X/L	.	8g#XL\	.	8gg#XL\
.	.	.	.	8g/	8gg\	8G/	8g/	.	8g\	.	8ggn\
.	.	.	.	8f/	8ff\	8F/	8f/	.	8f\	.	8ff\
.	.	.	.	8g/J	8ggJ\	8G/J	8g/J	.	8gJ\	.	8ggJ\
=	=	=	=	=	=	=	=	=	=	=	=
2FFF/	1r	1r	.	1r	.8dd#XL\	.8D#X/L	.8d#X/L	.	.8d#X/L	.	.8dd#XL\
.	.	.	.	.	.8a#X\	.8C/	.8A#X/	.	.8A#X/	.	.8a#X\
.	.	.	.	.	8dd#J\	8D#X/J	8d#X/J	.	8d#X/J	.	8dd#J\
2CC/	.	.	.	.	.8ffL\	.8F/L	.8f/L	.	.8fL\	.	.8ffL\
.	.	.	.	.	.8cc\	.8D#X/	.8c/	.	.8c\	.	.8cc\
.	.	.	.	.	8ffJ\	8F/J	8f/J	.	8fJ\	.	8ffJ\
=	=	=	=	=	=	=	=	=	=	=	=
2GGG#X/	1r	1r	.	1r	.8ggL\	.8G/L	.8g/L	.	.8gL\	.	.8ggL\
.	.	.	.	.	.8dd#X\	.8F/	.8d#X/	.	.8d#X\	.	.8dd#X\
.	.	.	.	.	8ggJ\	8G/J	8g/J	.	8gJ\	.	8ggJ\
2AAA#X/	.	.	.	.	8gg#XL\	8A-/L	8g#X/L	.	8g#XL\	.	8gg#XL\
.	.	.	.	.	8gg\	8G/	8g/	.	8g\	.	8ggn\
.	.	.	.	.	8ff\	8F/	8f/	.	8f\	.	8ff\
.	.	.	.	.	8ggJ\	8G/J	8g/J	.	8gJ\	.	8ggJ\
=	=	=	=	=	=	=	=	=	=	=	=
4r	1r	1r	.	1r	1r	1r	1r	.	1r	.	8ggL\
.	.	.	.	.	.	.	.	.	.	.	8ggJ\
4r	.	.	.	.	.	.	.	.	.	.	8ggL\
.	.	.	.	.	.	.	.	.	.	.	16ffL\
.	.	.	.	.	.	.	.	.	.	.	16dd#XJ\
2r	.	.	.	.	.	.	.	.	.	.	16ffL\
.	.	.	.	.	.	.	.	.	.	.	16gg\
.	.	.	.	.	.	.	.	.	.	.	16ff\
.	.	.	.	.	.	.	.	.	.	.	16dd#XJ\
.	.	.	.	.	.	.	.	.	.	.	8ccL\
.	.	.	.	.	.	.	.	.	.	.	8bJ\
=	=	=	=	=	=	=	=	=	=	=	=
2r	1r	1r	.	1r	1r	1r	1r	.	1r	.	8ccL\
.	.	.	.	.	.	.	.	.	.	.	8ddJ\
.	.	.	.	.	.	.	.	.	.	.	8dd#XL\
.	.	.	.	.	.	.	.	.	.	.	16ccL\
.	.	.	.	.	.	.	.	.	.	.	16dd#XJ\
2r	.	.	.	.	.	.	.	.	.	.	8ggL\
.	.	.	.	.	.	.	.	.	.	.	8gg\
.	.	.	.	.	.	.	.	.	.	.	8ff\
.	.	.	.	.	.	.	.	.	.	.	8ggJ\
=	=	=	=	=	=	=	=	=	=	=	=
1r	1r	1r	.	8g/L	8ggL\	1r	1r	.	1r	.	1r
.	.	.	.	8g/J	8ggJ\	.	.	.	.	.	.
.	.	.	.	8g/L	8ggL\	.	.	.	.	.	.
.	.	.	.	16f/L	16ffL\	.	.	.	.	.	.
.	.	.	.	16d#X/J	16dd#XJ\	.	.	.	.	.	.
.	.	.	.	16f/L	16ffL\	.	.	.	.	.	.
.	.	.	.	16g/	16gg\	.	.	.	.	.	.
.	.	.	.	16f/	16ff\	.	.	.	.	.	.
.	.	.	.	16d#X/J	16dd#XJ\	.	.	.	.	.	.
.	.	.	.	8c/L	8ccL\	.	.	.	.	.	.
.	.	.	.	8B/J	8bJ\	.	.	.	.	.	.
=	=	=	=	=	=	=	=	=	=	=	=
1r	1r	1r	.	8c/	8cc\	1r	1r	.	1r	.	1r
.	.	.	.	4c/	4cc\	.	.	.	.	.	.
.	.	.	.	8d/	8dd\	.	.	.	.	.	.
.	.	.	.	8d#X/L	8dd#XL\	.	.	.	.	.	.
.	.	.	.	8d/	8dd\	.	.	.	.	.	.
.	.	.	.	8c/	8cc\	.	.	.	.	.	.
.	.	.	.	8d/J	8ddJ\	.	.	.	.	.	.
=	=	=	=	=	=	=	=	=	=	=	=
1r	1r	1r	.	8r	8r	1r	1r	.	8r	.	1r
.	.	.	.	8c/L	8ccL\	.	.	.	8gL\	.	.
.	.	.	.	8c/	8cc\	.	.	.	8g\	.	.
.	.	.	.	8c/J	8ccJ\	.	.	.	8gJ\	.	.
.	.	.	.	8d#X/L	8dd#XL\	.	.	.	8g#XL\	.	.
.	.	.	.	8d/	8dd\	.	.	.	8g\	.	.
.	.	.	.	8c/	8cc\	.	.	.	8f\	.	.
.	.	.	.	8d/J	8ddJ\	.	.	.	8gJ\	.	.
=	=	=	=	=	=	=	=	=	=	=	=
1r	1r	1r	.	8r	8r	1r	1r	.	8r	.	1r
.	.	.	.	8g/L	8ggL\	.	.	.	8gL\	.	.
.	.	.	.	8g/	8gg\	.	.	.	8g\	.	.
.	.	.	.	8g#X/J	8gg#XJ\	.	.	.	8g#XJ\	.	.
.	.	.	.	8g/L	8ggL\	.	.	.	8gL\	.	.
.	.	.	.	8f/	8ff\	.	.	.	8f\	.	.
.	.	.	.	8d#X/	8dd#X\	.	.	.	8d#X\	.	.
.	.	.	.	8d/J	8ddJ\	.	.	.	8dJ\	.	.
=	=	=	=	=	=	=	=	=	=	=	=
1r	1r	1r	.	8r	8r	1r	1r	.	8r	.	1r
.	.	.	.	8c/L	8ccL\	.	.	.	8c/L	.	.
.	.	.	.	8c/	8cc\	.	.	.	8c/	.	.
.	.	.	.	8c/J	8ccJ\	.	.	.	8c/J	.	.
.	.	.	.	16d#X/	16dd#X\	.	.	.	16d#X\	.	.
.	.	.	.	8r	8r	.	.	.	8r	.	.
.	.	.	.	16c/	16cc\	.	.	.	16f\	.	.
.	.	.	.	8r	8r	.	.	.	8r	.	.
.	.	.	.	8B/	8b\	.	.	.	8g\	.	.
=	=	=	=	=	=	=	=	=	=	=	=
1r	1r	1r	.	.2c/	.2cc\	1r	1r	.	.2c/	.	1r
.	.	.	.	4r	4r	.	.	.	4r	.	.
=	=	=	=	=	=	=	=	=	=	=	=
1r	1r	1r	.	1r	1r	1r	1r	.	1r	.	1r
=	=	=	=	=	=	=	=	=	=	=	=
1r	1r	1r	.	1r	1r	1r	1r	.	1r	.	1r
=	=	=	=	=	=	=	=	=	=	=	=
1r	1r	1r	.	1r	1r	1r	1r	.	1r	.	1r
=	=	=	=	=	=	=	=	=	=	=	=
1r	1r	1r	.	1r	1r	1r	1r	.	1r	.	1r
=	=	=	=	=	=	=	=	=	=	=	=
1r	1r	1r	.	1r	1r	1r	1r	.	1r	.	1r
=	=	=	=	=	=	=	=	=	=	=	=
1r	1r	1r	.	1r	1r	1r	1r	.	1r	.	1r
=	=	=	=	=	=	=	=	=	=	=	=
1r	1r	1r	.	1r	1r	1r	1r	.	1r	.	1r
=	=	=	=	=	=	=	=	=	=	=	=
1r	1r	1r	.	1r	1r	1r	1r	.	1r	.	1r
=	=	=	=	=	=	=	=	=	=	=	=
1r	1r	1r	.	1r	1r	1r	1r	.	1r	.	1r
=	=	=	=	=	=	=	=	=	=	=	=
1r	1r	1r	.	1r	1r	1r	1r	.	1r	.	1r
=	=	=	=	=	=	=	=	=	=	=	=
1r	1r	1r	.	1r	1r	1r	1r	.	1r	.	1r
=	=	=	=	=	=	=	=	=	=	=	=
1r	1r	1r	.	1r	1r	1r	1r	.	1r	.	1r
=	=	=	=	=	=	=	=	=	=	=	=
1r	1r	1r	.	1r	1r	1r	1r	.	1r	.	1r
=	=	=	=	=	=	=	=	=	=	=	=
1r	1r	1r	.	1r	1r	1r	1r	.	1r	.	1r
=	=	=	=	=	=	=	=	=	=	=	=
1r	1r	1r	.	1r	1r	1r	1r	.	1r	.	1r
=	=	=	=	=	=	=	=	=	=	=	=
1r	1r	1r	.	1r	1r	1r	1r	.	1r	.	1r
=	=	=	=	=	=	=	=	=	=	=	=
1r	1r	1r	.	1r	1r	1r	1r	.	1r	.	1r
=	=	=	=	=	=	=	=	=	=	=	=
1r	1r	1r	.	1r	1r	1r	1r	.	1r	.	1r
=	=	=	=	=	=	=	=	=	=	=	=
1r	1r	1r	.	1r	1r	1r	1r	.	1r	.	1r
==	==	==	==	==	==	==	==	==	==	==	==
*-	*-	*-	*-	*-	*-	*-	*-	*-	*-	*-	*-
